X:475
T:Traveller, The
R:reel
D:Bothy Band: 1975
Z:id:hn-reel-475
M:C|
K:G
G2BG dGBG|ABcd cBAG|(3Bcd gd egdB|cBAG FADF|
G2BG dGBG|ABcd cBAG|(3Bcd gd egdB|1 cAFA G3D:|2 cAFA G3d||
|:g2dg egdg|~g2bg agef|g2dg egdB|cBAG FAD2|
g2dg egdg|~g2bg agef|~g3a gfed|1 (3efg fa gdef:|2 (3efg fa gedB||
